X:2
T:L'Inconnu de Michel
%%score { 1 | 2 }
L:1/8
M:2/4
C:Harmony Myrna Luff
K:G
V:1 treble
V:2 treble
V:1
|: Bd Bd | \
 c/B/A/B/ cc | Ac Ac | B/A/G/A/ Bd | Bd Bd | c/B/A/B/ cc | Ac AF | G2 G2 :|
 |: G>A Bc | d>e dB |  cA GA | B2 GD | G>A Bc | d>e dB | cA GF | G2 G2 :|
V:2
|: GD GB | A/G/F/G/ AA | FA FD | GD G/A/B/A/ | GD GB | A/G/F/G/ AG | FD Fc | B2 B2 :: 
 D>F GA | B>c Bg | ec ef | g/f/e dB | !tenuto!D>F GA | B/A/B/c/ Bg | ec A/B/c/A/ | B2 B2 :| 

